Catalina-light/actions/22/layer-next.svg

<svg xmlns="http://www.w3.org/2000/svg" viewBox="0 0 22 22">
  <defs id="defs3051">
    <style type="text/css" id="current-color-scheme">
      .ColorScheme-Text {
        color:#4d4d4d;
      }
      .ColorScheme-Highlight {
        color:#3daee9;
      }
      </style>
  </defs>
 <path 
     style="fill:currentColor;fill-opacity:1;stroke:none" 
     d="M 11 1.7011719 L 2.5664062 5.9179688 L 11 10.134766 L 19.433594 5.9179688 L 11 1.7011719 z M 4.9160156 14.90625 L 2.5664062 16.082031 L 11 20.298828 L 19.433594 16.082031 L 17.083984 14.90625 L 11 17.949219 L 4.9160156 14.90625 z "
     class="ColorScheme-Text"
     />
 <path 
     style="fill:currentColor;fill-opacity:1;stroke:none" 
     d="M 10.996094 11.117188 C 10.820088 11.117824 10.641222 11.186 10.507812 11.320312 L 7.5097656 14.341797 C 7.2434394 14.610056 7.2451015 15.049874 7.5136719 15.316406 C 7.7823654 15.583164 8.2231429 15.58142 8.4902344 15.3125 L 11.001953 12.783203 L 13.53125 15.294922 C 13.799954 15.56171 14.24076 15.560002 14.507812 15.291016 C 14.774788 15.022364 14.773038 14.581513 14.503906 14.314453 L 11.482422 11.316406 C 11.348871 11.18384 11.172734 11.116549 10.996094 11.117188 z "
     class="ColorScheme-Highlight"
     />
</svg>

<svg viewBox="0 0 22 22" xmlns="http://www.w3.org/2000/svg">
<defs>
<style id="current-color-scheme" type="text/css">.ColorScheme-Text {
        color:#363636;
      }
      .ColorScheme-Highlight {
        color:#3daee9;
      }</style>
</defs>
<path class="ColorScheme-Text" d="m11 1.7012-8.4336 4.2168 8.4336 4.2168 8.4336-4.2168-8.4336-4.2168zm-6.084 13.205-2.3496 1.1758 8.4336 4.2168 8.4336-4.2168-2.3496-1.1758-6.084 3.043-6.084-3.043z" fill="#363636"/>
<path class="ColorScheme-Highlight" d="m10.996 11.117c-0.17601 6.36e-4 -0.35487 0.068812-0.48828 0.20312l-2.998 3.0215c-0.26633 0.26826-0.26466 0.70808 0.0039063 0.97461 0.26869 0.26676 0.70947 0.26501 0.97656-0.003906l2.5117-2.5293 2.5293 2.5117c0.2687 0.26679 0.70951 0.26508 0.97656-0.003906 0.26698-0.26865 0.26523-0.7095-0.003906-0.97656l-3.0215-2.998c-0.13355-0.13257-0.30969-0.19986-0.48633-0.19922z" fill="#363636"/>
</svg>
